src/assets/outline/CommandSquare.svg

<svg width="24" height="24" viewBox="0 0 24 24"  xmlns="http://www.w3.org/2000/svg">
<path d="M14.4001 15.1496H9.6001C9.1901 15.1496 8.8501 14.8096 8.8501 14.3996V9.59961C8.8501 9.18961 9.1901 8.84961 9.6001 8.84961H14.4001C14.8101 8.84961 15.1501 9.18961 15.1501 9.59961V14.3996C15.1501 14.8096 14.8101 15.1496 14.4001 15.1496ZM10.3501 13.6496H13.6501V10.3496H10.3501V13.6496Z" />
<path d="M7.79999 18.7504C6.38999 18.7504 5.25 17.6104 5.25 16.2004C5.25 14.7904 6.38999 13.6504 7.79999 13.6504H9.59998C10.01 13.6504 10.35 13.9904 10.35 14.4004V16.2004C10.35 17.6104 9.20999 18.7504 7.79999 18.7504ZM7.79999 15.1504C7.21999 15.1504 6.75 15.6204 6.75 16.2004C6.75 16.7804 7.21999 17.2504 7.79999 17.2504C8.37999 17.2504 8.84998 16.7804 8.84998 16.2004V15.1504H7.79999Z" />
<path d="M9.59998 10.35H7.79999C6.38999 10.35 5.25 9.20999 5.25 7.79999C5.25 6.38999 6.38999 5.25 7.79999 5.25C9.20999 5.25 10.35 6.38999 10.35 7.79999V9.60001C10.35 10.01 10.01 10.35 9.59998 10.35ZM7.79999 6.75C7.21999 6.75 6.75 7.21999 6.75 7.79999C6.75 8.37999 7.21999 8.85001 7.79999 8.85001H8.84998V7.79999C8.84998 7.21999 8.37999 6.75 7.79999 6.75Z" />
<path d="M16.1999 10.35H14.3999C13.9899 10.35 13.6499 10.01 13.6499 9.60001V7.79999C13.6499 6.38999 14.7899 5.25 16.1999 5.25C17.6099 5.25 18.7499 6.38999 18.7499 7.79999C18.7499 9.20999 17.6099 10.35 16.1999 10.35ZM15.1499 8.85001H16.1999C16.7799 8.85001 17.2499 8.37999 17.2499 7.79999C17.2499 7.21999 16.7799 6.75 16.1999 6.75C15.6199 6.75 15.1499 7.21999 15.1499 7.79999V8.85001Z" />
<path d="M16.1999 18.7504C14.7899 18.7504 13.6499 17.6104 13.6499 16.2004V14.4004C13.6499 13.9904 13.9899 13.6504 14.3999 13.6504H16.1999C17.6099 13.6504 18.7499 14.7904 18.7499 16.2004C18.7499 17.6104 17.6099 18.7504 16.1999 18.7504ZM15.1499 15.1504V16.2004C15.1499 16.7804 15.6199 17.2504 16.1999 17.2504C16.7799 17.2504 17.2499 16.7804 17.2499 16.2004C17.2499 15.6204 16.7799 15.1504 16.1999 15.1504H15.1499Z" />
<path d="M15 22.75H9C3.57 22.75 1.25 20.43 1.25 15V9C1.25 3.57 3.57 1.25 9 1.25H15C20.43 1.25 22.75 3.57 22.75 9V15C22.75 20.43 20.43 22.75 15 22.75ZM9 2.75C4.39 2.75 2.75 4.39 2.75 9V15C2.75 19.61 4.39 21.25 9 21.25H15C19.61 21.25 21.25 19.61 21.25 15V9C21.25 4.39 19.61 2.75 15 2.75H9Z" />
</svg>

<?xml version="1.0" encoding="UTF-8"?>
<svg width="24" height="24" viewBox="0 0 24 24" xmlns="http://www.w3.org/2000/svg">
 <path d="m14.4 15.15h-4.8c-0.41 0-0.75-0.34-0.75-0.75v-4.8c0-0.41 0.34-0.75 0.75-0.75h4.8c0.41 0 0.75 0.34 0.75 0.75v4.8c0 0.41-0.34 0.75-0.75 0.75zm-4.05-1.5h3.3v-3.3h-3.3v3.3z"/>
 <path d="m7.8 18.75c-1.41 0-2.55-1.14-2.55-2.55s1.14-2.55 2.55-2.55h1.8c0.41002 0 0.75002 0.34 0.75002 0.75v1.8c0 1.41-1.14 2.55-2.55 2.55zm0-3.6c-0.58 0-1.05 0.47-1.05 1.05s0.46999 1.05 1.05 1.05 1.05-0.47 1.05-1.05v-1.05h-1.05z"/>
 <path d="m9.6 10.35h-1.8c-1.41 0-2.55-1.14-2.55-2.55s1.14-2.55 2.55-2.55 2.55 1.14 2.55 2.55v1.8c0 0.40999-0.34 0.74999-0.75002 0.74999zm-1.8-3.6c-0.58 0-1.05 0.46999-1.05 1.05s0.46999 1.05 1.05 1.05h1.05v-1.05c0-0.58-0.46999-1.05-1.05-1.05z"/>
 <path d="m16.2 10.35h-1.8c-0.41 0-0.75-0.34-0.75-0.74999v-1.8c0-1.41 1.14-2.55 2.55-2.55s2.55 1.14 2.55 2.55-1.14 2.55-2.55 2.55zm-1.05-1.5h1.05c0.58 0 1.05-0.47002 1.05-1.05s-0.47-1.05-1.05-1.05-1.05 0.46999-1.05 1.05v1.05z"/>
 <path d="m16.2 18.75c-1.41 0-2.55-1.14-2.55-2.55v-1.8c0-0.41 0.34-0.75 0.75-0.75h1.8c1.41 0 2.55 1.14 2.55 2.55s-1.14 2.55-2.55 2.55zm-1.05-3.6v1.05c0 0.58 0.47 1.05 1.05 1.05s1.05-0.47 1.05-1.05-0.47-1.05-1.05-1.05h-1.05z"/>
 <path d="m15 22.75h-6c-5.43 0-7.75-2.32-7.75-7.75v-6c0-5.43 2.32-7.75 7.75-7.75h6c5.43 0 7.75 2.32 7.75 7.75v6c0 5.43-2.32 7.75-7.75 7.75zm-6-20c-4.61 0-6.25 1.64-6.25 6.25v6c0 4.61 1.64 6.25 6.25 6.25h6c4.61 0 6.25-1.64 6.25-6.25v-6c0-4.61-1.64-6.25-6.25-6.25h-6z"/>
</svg>
